X: 207
T:Zemer Bagilboa
C:Mark Lavry 1976
O:Israel
Z:Seymour Shlien fy733@ncf.ca
L:1/8
M:4/4
K:Am
Q:1/4=120
|:"Dm"AdcA "F"BGAF| "Dm"D2 D6    | "F"AdcB "Am"AGcB| "F"A8        |\
  "Dm"FGAG "F"cGGF| "Dm"F8       |EFGE GEED        | D8           :|
L:1/8
M:2/4
K:Dm
Q:1/4=160
|:"Dm"z2 "F"F>G   | "Dm"A2 "F"A2 | "Dm"GF"F"GA     | "Dm"F2 "Bb"D2|\
  "Dm"z2 "F"F>G   | "Dm"A2 "F"A2 | "Dm"GF"F"cB     | "Dm"A4       |
  "F"zA2c         |"Dm"d2 "Bb"d2 |"Gm"cB"Bb"cB     | "Dm"A2 "F"A2 |\
  "Dm"zF2G        | "F"A2 "Dm"A2 |"C"GE"Am"GE      |"Dm"D4        :|



